X:1
T:Hanno
M:12/8
L:1/8
C:Ed Wosika (c)2010
R:dbl jig
K:D
|:fA eA dc AF=c (3AB^c g|fA eA dc GAf g ag|\
fA eA dc FGf E ag|1 (3fed =c ABG  GED D3:|\
[2 fde =cAF|(GED D3||
~a3 gec d=cA (3FGA g|~a3 gec d=cA G3|\
~a3 gec|d=cA FGE|1DFA GBd|=cAG A3:|2\
dfa gec|d=cA G3||
